public/img/icons/roskalaatikko.svg

<svg width="20" height="20" xmlns="http://www.w3.org/2000/svg" xmlns:xlink="http://www.w3.org/1999/xlink">
    <defs>
        <path d="M15 18H6V6h9v12zM13 0H8L7 1H3v2h15V1h-4l-1-1zm4 4H4v14a2 2 0 002 2h9a2 2 0 002-2V4z" id="a"/>
    </defs>
    <use xlink:href="#a"/>
</svg>

<?xml version="1.0" encoding="UTF-8"?>
<svg width="20px" height="20px" viewBox="0 0 20 20" version="1.1" xmlns="http://www.w3.org/2000/svg" xmlns:xlink="http://www.w3.org/1999/xlink">
    <!-- Generator: Sketch 61 (89581) - https://sketch.com -->
    <title>Roskalaatikko</title>
    <desc>Created with Sketch.</desc>
    <defs>
        <path d="M15,18 L6,18 L6,6 L15,6 L15,18 Z M13,5.68434189e-14 L8,5.68434189e-14 L7,1 L3,1 L3,3 L18,3 L18,1 L14,1 L13,5.68434189e-14 Z M17,4 L4,4 L4,17 C4,17.3333333 4,17.6666667 4,18 C4,19.1045695 4.8954305,20 6,20 L15,20 C16.1045695,20 17,19.1045695 17,18 C17,18 17,18 17,18 L17,4 Z" id="path-1"></path>
    </defs>
    <g id="ASSETIT-+-tekstityylit" stroke="none" stroke-width="1" fill="none" fill-rule="evenodd">
        <g id="Ryhma-Copy-44">
            <mask id="mask-2" fill="white">
                <use xlink:href="#path-1"></use>
            </mask>
            <use id="Mask" fill="#000000" fill-rule="nonzero" xlink:href="#path-1"></use>
        </g>
    </g>
</svg>
